X:2342
T:Mollag band song 
S:Words attributed to P Leighton Stowell
C:Traditional
O:Isle of Man
B:Kiaull Vannin #342 
M:4/4 
L:1/8 
Q:80 
K:G 
D2|G3 A B2 A2|G6 D2|G3 A B2 A2|G6 B2| 
d3 B d3 B|d> A d> c d2 G2|G3 c B2 B2|G6|| 
W:We are the Mollag band, So glorious and so grand. }
W:We're lately come from say We haven't had our tay.} 
W:Yo-hi yo-hi yo-hi yo-hi yo-hi, We are the Mollag Band.

